src/assets/icons/Matrix/Rotador/matrix9_t.svg

<?xml version="1.0" encoding="UTF-8"?>
<svg id="Capa_2" data-name="Capa 2" xmlns="http://www.w3.org/2000/svg" viewBox="0 0 38.75 1.67">
  <defs>
    <style>
      .cls-1 {
        fill: none;
        stroke: #000;
        stroke-linecap: round;
        stroke-linejoin: round;
        stroke-width: .05px;
      }
    </style>
  </defs>
  <g id="Capa_1-2" data-name="Capa 1">
    <g>
      <polyline class="cls-1" points="19.55 .93 19.55 1.05 19.58 1.08 19.61 1.08 20.45 1.08 20.48 1.08 20.48 1.11 20.48 1.13 20.48 1.31 20.48 1.34 20.48 1.37 20.45 1.4 20.45 1.43 20.42 1.43 20.39 1.43 20.36 1.43"/>
      <polyline class="cls-1" points="19.25 .8 19.25 .9 19.25 .93 19.41 1.22 19.44 1.22 19.44 1.25 19.47 1.25 20.25 1.25 20.25 1.31 20.28 1.34 20.28 1.37 20.28 1.4 20.3 1.43 20.33 1.43 20.36 1.43"/>
      <polyline class="cls-1" points="18.05 1.05 17.06 1.05 17.03 1.05 17.03 1.02 17.03 .87"/>
      <polyline class="cls-1" points="16.01 1.05 15.05 1.05 15.03 1.05 15 1.05 15 1.02 15 .87"/>
      <polyline class="cls-1" points="13.97 1.05 13.01 1.05 12.98 1.05 12.95 1.05 12.95 1.02 12.95 .87"/>
      <polyline class="cls-1" points="11.97 1.05 10.97 1.05 10.94 1.05 10.94 1.02 10.91 1.02 10.91 .87"/>
      <polyline class="cls-1" points="9.92 1.05 9.78 1.05 9.75 1.05 9.75 1.08 9.72 1.08 9.72 1.11 9.72 1.28 9.72 1.31 9.75 1.34 9.78 1.34 9.92 1.34 9.95 1.34 9.98 1.37 9.98 1.4 9.98 1.59 9.98 1.62 9.95 1.65 9.92 1.65 9.26 1.65 9.23 1.65 9.23 1.62 9.2 1.62 9.2 1.59 9.2 1.4 9.2 1.37 9.23 1.37 9.23 1.34 9.26 1.34 9.5 1.34 9.53 1.34 9.53 1.31 9.53 1.28 9.53 1.11 9.53 1.08 9.5 1.08 9.5 1.05 8.94 1.05 8.91 1.05 8.91 1.02 8.91 .87"/>
      <polyline class="cls-1" points="7.88 1.05 6.92 1.05 6.89 1.05 6.86 1.05 6.86 1.02 6.86 .87"/>
      <polyline class="cls-1" points="5.84 1.05 4.88 1.05 4.85 1.05 4.82 1.05 4.82 1.02 4.82 .87"/>
      <polyline class="cls-1" points="3.83 1.05 2.75 1.05 2.54 1.05 2.51 1.08 2.51 1.11 2.48 1.11 2.48 1.59 2.48 1.62 2.48 1.65 2.45 1.65 2.33 1.65 .05 1.65 .03 1.65 .03 1.62 .03 1.59 .03 1.52 .03 1.49 .03 1.46 .05 1.46 .23 1.46 .56 1.46 .59 1.49 .59 1.46 2.28 1.46 2.3 1.46 2.3 1.43 2.33 1.43 2.33 1.4 2.33 .8"/>
      <polyline class="cls-1" points="1.79 1.05 1.44 1.05 1.41 1.05 1.41 1.02 1.41 .93 1.41 .9 1.44 .9 1.44 .87 1.82 .87"/>
      <line class="cls-1" x1="3.17" y1=".87" x2="3.83" y2=".87"/>
      <line class="cls-1" x1="5.22" y1=".87" x2="5.84" y2=".87"/>
      <line class="cls-1" x1="7.25" y1=".87" x2="7.88" y2=".87"/>
      <line class="cls-1" x1="9.26" y1=".87" x2="9.92" y2=".87"/>
      <line class="cls-1" x1="11.3" y1=".87" x2="11.97" y2=".87"/>
      <line class="cls-1" x1="13.34" y1=".87" x2="13.97" y2=".87"/>
      <line class="cls-1" x1="15.38" y1=".87" x2="16.01" y2=".87"/>
      <line class="cls-1" x1="17.39" y1=".87" x2="18.05" y2=".87"/>
      <path class="cls-1" d="m3.15.84c.14-.16.16-.38.05-.57-.1-.18-.31-.28-.51-.24-.21.04-.37.2-.4.4"/>
      <path class="cls-1" d="m2.77.84c.15,0,.29-.11.31-.26.02-.15-.06-.3-.21-.35-.15-.05-.31.02-.38.15"/>
      <path class="cls-1" d="m19.41.84c.14-.16.16-.38.05-.57-.1-.18-.31-.28-.51-.24-.21.04-.37.2-.4.4"/>
      <path class="cls-1" d="m19.23.76c.11-.09.15-.24.09-.37-.05-.13-.19-.21-.33-.19-.14.02-.25.12-.28.26"/>
      <path class="cls-1" d="m1.78.84c.24,0,.45-.17.49-.41"/>
      <path class="cls-1" d="m1.78,1.02c.2,0,.39-.09.52-.25"/>
      <line class="cls-1" x1="2.48" y1=".84" x2="2.48" y2=".38"/>
      <line class="cls-1" x1="2.78" y1=".87" x2="2.54" y2=".87"/>
      <path class="cls-1" d="m2.48.82s.02.05.05.05"/>
      <path class="cls-1" d="m18.04.84c.24,0,.45-.17.49-.41"/>
      <path class="cls-1" d="m18.04,1.02c.33,0,.61-.23.66-.56"/>
      <path class="cls-1" d="m19.53.91s-.02-.04-.05-.04"/>
      <line class="cls-1" x1="19.44" y1=".87" x2="19.5" y2=".87"/>
      <line class="cls-1" x1="19.25" y1=".93" x2="19.41" y2="1.22"/>
      <path class="cls-1" d="m11.28.84c.14-.16.16-.38.05-.57-.1-.18-.31-.28-.51-.24-.21.04-.37.2-.4.4"/>
      <path class="cls-1" d="m10.91.83c.17,0,.3-.14.31-.3,0-.17-.12-.31-.28-.33-.16-.02-.32.09-.34.26"/>
      <path class="cls-1" d="m9.91.84c.24,0,.45-.17.49-.41"/>
      <path class="cls-1" d="m9.91,1.02c.33,0,.61-.23.66-.56"/>
      <path class="cls-1" d="m7.23.84c.14-.16.16-.38.05-.57-.1-.18-.31-.28-.51-.24-.21.04-.37.2-.4.4"/>
      <path class="cls-1" d="m6.86.83c.17,0,.3-.14.31-.3,0-.17-.12-.31-.28-.33-.16-.02-.32.09-.34.26"/>
      <path class="cls-1" d="m5.83.84c.24,0,.45-.17.49-.41"/>
      <path class="cls-1" d="m5.83,1.02c.33,0,.61-.23.66-.56"/>
      <path class="cls-1" d="m15.36.84c.14-.16.16-.38.05-.57-.1-.18-.31-.28-.51-.24-.21.04-.37.2-.4.4"/>
      <path class="cls-1" d="m14.99.83c.17,0,.3-.14.31-.3s-.12-.31-.28-.33c-.16-.02-.32.09-.34.26"/>
      <path class="cls-1" d="m13.96.84c.24,0,.45-.17.49-.41"/>
      <path class="cls-1" d="m13.96,1.02c.33,0,.61-.23.66-.56"/>
      <path class="cls-1" d="m5.19.84c.14-.16.16-.38.05-.57-.1-.18-.31-.28-.51-.24-.21.04-.37.2-.4.4"/>
      <path class="cls-1" d="m4.82.83c.17,0,.3-.14.31-.3,0-.17-.12-.31-.28-.33-.16-.02-.32.09-.34.26"/>
      <path class="cls-1" d="m3.82.84c.24,0,.45-.17.49-.41"/>
      <path class="cls-1" d="m3.82,1.02c.33,0,.61-.23.66-.56"/>
      <path class="cls-1" d="m9.24.84c.14-.16.16-.38.05-.57-.1-.18-.31-.28-.51-.24-.21.04-.37.2-.4.4"/>
      <path class="cls-1" d="m8.87.83c.17,0,.3-.14.31-.3s-.12-.31-.28-.33c-.16-.02-.32.09-.34.26"/>
      <path class="cls-1" d="m7.87.84c.24,0,.45-.17.49-.41"/>
      <path class="cls-1" d="m7.87,1.02c.33,0,.61-.23.66-.56"/>
      <path class="cls-1" d="m13.32.84c.14-.16.16-.38.05-.57-.1-.18-.31-.28-.51-.24-.21.04-.37.2-.4.4"/>
      <path class="cls-1" d="m12.95.83c.17,0,.3-.14.31-.3,0-.17-.12-.31-.28-.33-.16-.02-.32.09-.34.26"/>
      <path class="cls-1" d="m11.95.84c.24,0,.45-.17.49-.41"/>
      <path class="cls-1" d="m11.95,1.02c.33,0,.61-.23.66-.56"/>
      <path class="cls-1" d="m17.37.84c.14-.16.16-.38.05-.57-.1-.18-.31-.28-.51-.24-.21.04-.37.2-.4.4"/>
      <path class="cls-1" d="m17,.83c.17,0,.3-.14.31-.3s-.12-.31-.28-.33c-.16-.02-.32.09-.34.26"/>
      <path class="cls-1" d="m16,.84c.24,0,.45-.17.49-.41"/>
      <path class="cls-1" d="m16,1.02c.33,0,.61-.23.66-.56"/>
      <polyline class="cls-1" points="37.76 .93 37.76 1.05 37.79 1.05 37.79 1.08 37.82 1.08 38.66 1.08 38.69 1.08 38.69 1.11 38.72 1.11 38.72 1.13 38.72 1.31 38.72 1.34 38.69 1.37 38.69 1.4 38.66 1.43 38.63 1.43 38.6 1.43"/>
      <polyline class="cls-1" points="37.47 .8 37.47 .9 37.5 .93 37.64 1.22 37.64 1.25 37.67 1.25 38.48 1.25 38.48 1.31 38.48 1.34 38.48 1.37 38.51 1.4 38.51 1.43 38.54 1.43 38.57 1.43 38.6 1.43"/>
      <polyline class="cls-1" points="36.26 1.05 35.3 1.05 35.28 1.05 35.25 1.05 35.25 1.02 35.25 .87"/>
      <polyline class="cls-1" points="34.22 1.05 33.26 1.05 33.23 1.05 33.2 1.02 33.2 .87"/>
      <polyline class="cls-1" points="32.22 1.05 31.22 1.05 31.19 1.05 31.19 1.02 31.16 1.02 31.16 .87"/>
      <polyline class="cls-1" points="30.17 1.05 29.19 1.05 29.16 1.05 29.16 1.02 29.16 .87"/>
      <polyline class="cls-1" points="28.13 1.05 27.98 1.05 27.95 1.05 27.95 1.08 27.92 1.11 27.92 1.28 27.92 1.31 27.95 1.31 27.95 1.34 27.98 1.34 28.16 1.34 28.19 1.34 28.19 1.37 28.19 1.4 28.19 1.59 28.19 1.62 28.19 1.65 28.16 1.65 27.47 1.65 27.44 1.65 27.44 1.62 27.44 1.59 27.44 1.4 27.44 1.37 27.44 1.34 27.47 1.34 27.72 1.34 27.75 1.34 27.75 1.31 27.78 1.28 27.78 1.11 27.75 1.11 27.75 1.08 27.72 1.05 27.17 1.05 27.14 1.05 27.11 1.05 27.11 1.02 27.11 .87"/>
      <polyline class="cls-1" points="26.09 1.05 25.13 1.05 25.1 1.05 25.07 1.05 25.07 1.02 25.07 .87"/>
      <polyline class="cls-1" points="24.08 1.05 23.09 1.05 23.06 1.05 23.06 1.02 23.06 .87"/>
      <polyline class="cls-1" points="22.04 1.05 20.97 1.05 20.75 1.05 20.75 1.08 20.72 1.08 20.72 1.11 20.72 1.59 20.72 1.62 20.69 1.62 20.69 1.65 20.66 1.65 20.54 1.65 18.29 1.65 18.26 1.65 18.23 1.62 18.23 1.59 18.23 1.52 18.23 1.49 18.26 1.46 18.29 1.46 18.44 1.46 18.78 1.46 18.8 1.49 18.83 1.46 20.48 1.46 20.51 1.46 20.51 1.43 20.54 1.43 20.54 1.4 20.54 .8"/>
      <polyline class="cls-1" points="20 1.05 19.67 1.05 19.64 1.05 19.61 1.05 19.61 1.02 19.61 .93 19.61 .9 19.64 .9 19.64 .87 19.67 .87 20.03 .87"/>
      <line class="cls-1" x1="21.38" y1=".87" x2="22.04" y2=".87"/>
      <line class="cls-1" x1="23.42" y1=".87" x2="24.08" y2=".87"/>
      <line class="cls-1" x1="25.47" y1=".87" x2="26.09" y2=".87"/>
      <line class="cls-1" x1="27.5" y1=".87" x2="28.13" y2=".87"/>
      <line class="cls-1" x1="29.51" y1=".87" x2="30.17" y2=".87"/>
      <line class="cls-1" x1="31.55" y1=".87" x2="32.22" y2=".87"/>
      <line class="cls-1" x1="33.59" y1=".87" x2="34.22" y2=".87"/>
      <line class="cls-1" x1="35.63" y1=".87" x2="36.26" y2=".87"/>
      <path class="cls-1" d="m21.39.84c.14-.16.16-.38.05-.57-.1-.18-.31-.28-.51-.24-.21.04-.37.2-.4.4"/>
      <path class="cls-1" d="m21.01.84c.15,0,.29-.11.31-.26.02-.15-.06-.3-.21-.35-.15-.05-.31.02-.38.15"/>
      <path class="cls-1" d="m37.62.84c.14-.16.16-.38.05-.57-.1-.18-.31-.28-.51-.24-.21.04-.37.2-.4.4"/>
      <path class="cls-1" d="m37.44.76c.11-.09.15-.24.09-.37-.05-.13-.19-.21-.33-.19-.14.02-.25.12-.28.26"/>
      <path class="cls-1" d="m19.99.84c.24,0,.45-.17.49-.41"/>
      <path class="cls-1" d="m19.99,1.02c.2,0,.39-.09.52-.25"/>
      <line class="cls-1" x1="20.72" y1=".84" x2="20.72" y2=".38"/>
      <line class="cls-1" x1="21.03" y1=".87" x2="20.75" y2=".87"/>
      <path class="cls-1" d="m20.69.82s.02.05.05.05"/>
      <path class="cls-1" d="m36.25.84c.24,0,.45-.17.49-.41"/>
      <path class="cls-1" d="m36.25,1.02c.33,0,.61-.23.66-.56"/>
      <path class="cls-1" d="m37.76.91s-.02-.04-.05-.04"/>
      <line class="cls-1" x1="37.64" y1=".87" x2="37.73" y2=".87"/>
      <line class="cls-1" x1="37.5" y1=".93" x2="37.64" y2="1.22"/>
      <path class="cls-1" d="m29.49.84c.14-.16.16-.38.05-.57-.1-.18-.31-.28-.51-.24-.21.04-.37.2-.4.4"/>
      <path class="cls-1" d="m29.12.83c.17,0,.3-.14.31-.3s-.12-.31-.28-.33c-.16-.02-.32.09-.34.26"/>
      <path class="cls-1" d="m28.12.84c.24,0,.45-.17.49-.41"/>
      <path class="cls-1" d="m28.12,1.02c.33,0,.61-.23.66-.56"/>
      <path class="cls-1" d="m25.44.84c.14-.16.16-.38.05-.57-.1-.18-.31-.28-.51-.24-.21.04-.37.2-.4.4"/>
      <path class="cls-1" d="m25.07.83c.17,0,.3-.14.31-.3,0-.17-.12-.31-.28-.33-.16-.02-.32.09-.34.26"/>
      <path class="cls-1" d="m24.07.84c.24,0,.45-.17.49-.41"/>
      <path class="cls-1" d="m24.07,1.02c.33,0,.61-.23.66-.56"/>
      <path class="cls-1" d="m33.57.84c.14-.16.16-.38.05-.57-.1-.18-.31-.28-.51-.24-.21.04-.37.2-.4.4"/>
      <path class="cls-1" d="m33.2.83c.17,0,.3-.14.31-.3,0-.17-.12-.31-.28-.33-.16-.02-.32.09-.34.26"/>
      <path class="cls-1" d="m32.2.84c.24,0,.45-.17.49-.41"/>
      <path class="cls-1" d="m32.2,1.02c.33,0,.61-.23.66-.56"/>
      <path class="cls-1" d="m23.4.84c.14-.16.16-.38.05-.57-.1-.18-.31-.28-.51-.24-.21.04-.37.2-.4.4"/>
      <path class="cls-1" d="m23.03.83c.17,0,.3-.14.31-.3s-.12-.31-.28-.33c-.16-.02-.32.09-.34.26"/>
      <path class="cls-1" d="m22.03.84c.24,0,.45-.17.49-.41"/>
      <path class="cls-1" d="m22.03,1.02c.33,0,.61-.23.66-.56"/>
      <path class="cls-1" d="m27.48.84c.14-.16.16-.38.05-.57-.1-.18-.31-.28-.51-.24-.21.04-.37.2-.4.4"/>
      <path class="cls-1" d="m27.11.83c.17,0,.3-.14.31-.3,0-.17-.12-.31-.28-.33-.16-.02-.32.09-.34.26"/>
      <path class="cls-1" d="m26.08.84c.24,0,.45-.17.49-.41"/>
      <path class="cls-1" d="m26.08,1.02c.33,0,.61-.23.66-.56"/>
      <path class="cls-1" d="m31.53.84c.14-.16.16-.38.05-.57-.1-.18-.31-.28-.51-.24-.21.04-.37.2-.4.4"/>
      <path class="cls-1" d="m31.16.83c.17,0,.3-.14.31-.3,0-.17-.12-.31-.28-.33-.16-.02-.32.09-.34.26"/>
      <path class="cls-1" d="m30.16.84c.24,0,.45-.17.49-.41"/>
      <path class="cls-1" d="m30.16,1.02c.33,0,.61-.23.66-.56"/>
      <path class="cls-1" d="m35.61.84c.14-.16.16-.38.05-.57-.1-.18-.31-.28-.51-.24-.21.04-.37.2-.4.4"/>
      <path class="cls-1" d="m35.24.83c.17,0,.3-.14.31-.3s-.12-.31-.28-.33c-.16-.02-.32.09-.34.26"/>
      <path class="cls-1" d="m34.21.84c.24,0,.45-.17.49-.41"/>
      <path class="cls-1" d="m34.21,1.02c.33,0,.61-.23.66-.56"/>
    </g>
  </g>
</svg>

<?xml version="1.0" encoding="UTF-8" standalone="no"?>
<svg
   id="Capa_2"
   data-name="Capa 2"
   viewBox="0 0 20.5 1.6787905"
   version="1.1"
   sodipodi:docname="matrix9_t.svg"
   width="20.5"
   height="1.6787905"
   inkscape:version="1.3.2 (091e20e, 2023-11-25, custom)"
   xmlns:inkscape="http://www.inkscape.org/namespaces/inkscape"
   xmlns:sodipodi="http://sodipodi.sourceforge.net/DTD/sodipodi-0.dtd"
   xmlns="http://www.w3.org/2000/svg"
   xmlns:svg="http://www.w3.org/2000/svg">
  <sodipodi:namedview
     id="namedview109"
     pagecolor="#ffffff"
     bordercolor="#000000"
     borderopacity="0.25"
     inkscape:showpageshadow="2"
     inkscape:pageopacity="0.0"
     inkscape:pagecheckerboard="0"
     inkscape:deskcolor="#d1d1d1"
     showgrid="false"
     inkscape:zoom="52.877419"
     inkscape:cx="19.375"
     inkscape:cy="0.84156906"
     inkscape:window-width="2560"
     inkscape:window-height="1369"
     inkscape:window-x="-8"
     inkscape:window-y="-8"
     inkscape:window-maximized="1"
     inkscape:current-layer="Capa_2" />
  <defs
     id="defs1">
    <style
       id="style1">
      .cls-1 {
        fill: none;
        stroke: #000;
        stroke-linecap: round;
        stroke-linejoin: round;
        stroke-width: .05px;
      }
    </style>
  </defs>
  <g
     id="Capa_1-2"
     data-name="Capa 1"
     transform="translate(-0.005,0.00379047)">
    <g
       id="g109">
      <polyline
         class="cls-1"
         points="19.55 .93 19.55 1.05 19.58 1.08 19.61 1.08 20.45 1.08 20.48 1.08 20.48 1.11 20.48 1.13 20.48 1.31 20.48 1.34 20.48 1.37 20.45 1.4 20.45 1.43 20.42 1.43 20.39 1.43 20.36 1.43"
         id="polyline1" />
      <polyline
         class="cls-1"
         points="19.25 .8 19.25 .9 19.25 .93 19.41 1.22 19.44 1.22 19.44 1.25 19.47 1.25 20.25 1.25 20.25 1.31 20.28 1.34 20.28 1.37 20.28 1.4 20.3 1.43 20.33 1.43 20.36 1.43"
         id="polyline2" />
      <polyline
         class="cls-1"
         points="18.05 1.05 17.06 1.05 17.03 1.05 17.03 1.02 17.03 .87"
         id="polyline3" />
      <polyline
         class="cls-1"
         points="16.01 1.05 15.05 1.05 15.03 1.05 15 1.05 15 1.02 15 .87"
         id="polyline4" />
      <polyline
         class="cls-1"
         points="13.97 1.05 13.01 1.05 12.98 1.05 12.95 1.05 12.95 1.02 12.95 .87"
         id="polyline5" />
      <polyline
         class="cls-1"
         points="11.97 1.05 10.97 1.05 10.94 1.05 10.94 1.02 10.91 1.02 10.91 .87"
         id="polyline6" />
      <polyline
         class="cls-1"
         points="9.92 1.05 9.78 1.05 9.75 1.05 9.75 1.08 9.72 1.08 9.72 1.11 9.72 1.28 9.72 1.31 9.75 1.34 9.78 1.34 9.92 1.34 9.95 1.34 9.98 1.37 9.98 1.4 9.98 1.59 9.98 1.62 9.95 1.65 9.92 1.65 9.26 1.65 9.23 1.65 9.23 1.62 9.2 1.62 9.2 1.59 9.2 1.4 9.2 1.37 9.23 1.37 9.23 1.34 9.26 1.34 9.5 1.34 9.53 1.34 9.53 1.31 9.53 1.28 9.53 1.11 9.53 1.08 9.5 1.08 9.5 1.05 8.94 1.05 8.91 1.05 8.91 1.02 8.91 .87"
         id="polyline7" />
      <polyline
         class="cls-1"
         points="7.88 1.05 6.92 1.05 6.89 1.05 6.86 1.05 6.86 1.02 6.86 .87"
         id="polyline8" />
      <polyline
         class="cls-1"
         points="5.84 1.05 4.88 1.05 4.85 1.05 4.82 1.05 4.82 1.02 4.82 .87"
         id="polyline9" />
      <polyline
         class="cls-1"
         points="3.83 1.05 2.75 1.05 2.54 1.05 2.51 1.08 2.51 1.11 2.48 1.11 2.48 1.59 2.48 1.62 2.48 1.65 2.45 1.65 2.33 1.65 .05 1.65 .03 1.65 .03 1.62 .03 1.59 .03 1.52 .03 1.49 .03 1.46 .05 1.46 .23 1.46 .56 1.46 .59 1.49 .59 1.46 2.28 1.46 2.3 1.46 2.3 1.43 2.33 1.43 2.33 1.4 2.33 .8"
         id="polyline10" />
      <polyline
         class="cls-1"
         points="1.79 1.05 1.44 1.05 1.41 1.05 1.41 1.02 1.41 .93 1.41 .9 1.44 .9 1.44 .87 1.82 .87"
         id="polyline11" />
      <line
         class="cls-1"
         x1="3.1700001"
         y1="0.87"
         x2="3.8299999"
         y2="0.87"
         id="line11" />
      <line
         class="cls-1"
         x1="5.2199998"
         y1="0.87"
         x2="5.8400002"
         y2="0.87"
         id="line12" />
      <line
         class="cls-1"
         x1="7.25"
         y1="0.87"
         x2="7.8800001"
         y2="0.87"
         id="line13" />
      <line
         class="cls-1"
         x1="9.2600002"
         y1="0.87"
         x2="9.9200001"
         y2="0.87"
         id="line14" />
      <line
         class="cls-1"
         x1="11.3"
         y1="0.87"
         x2="11.97"
         y2="0.87"
         id="line15" />
      <line
         class="cls-1"
         x1="13.34"
         y1="0.87"
         x2="13.97"
         y2="0.87"
         id="line16" />
      <line
         class="cls-1"
         x1="15.38"
         y1="0.87"
         x2="16.01"
         y2="0.87"
         id="line17" />
      <line
         class="cls-1"
         x1="17.389999"
         y1="0.87"
         x2="18.049999"
         y2="0.87"
         id="line18" />
      <path
         class="cls-1"
         d="M 3.15,0.84 C 3.29,0.68 3.31,0.46 3.2,0.27 3.1,0.09 2.89,-0.01 2.69,0.03 2.48,0.07 2.32,0.23 2.29,0.43"
         id="path18" />
      <path
         class="cls-1"
         d="M 2.77,0.84 C 2.92,0.84 3.06,0.73 3.08,0.58 3.1,0.43 3.02,0.28 2.87,0.23 2.72,0.18 2.56,0.25 2.49,0.38"
         id="path19" />
      <path
         class="cls-1"
         d="m 19.41,0.84 c 0.14,-0.16 0.16,-0.38 0.05,-0.57 -0.1,-0.18 -0.31,-0.28 -0.51,-0.24 -0.21,0.04 -0.37,0.2 -0.4,0.4"
         id="path20" />
      <path
         class="cls-1"
         d="M 19.23,0.76 C 19.34,0.67 19.38,0.52 19.32,0.39 19.27,0.26 19.13,0.18 18.99,0.2 18.85,0.22 18.74,0.32 18.71,0.46"
         id="path21" />
      <path
         class="cls-1"
         d="m 1.78,0.84 c 0.24,0 0.45,-0.17 0.49,-0.41"
         id="path22" />
      <path
         class="cls-1"
         d="m 1.78,1.02 c 0.2,0 0.39,-0.09 0.52,-0.25"
         id="path23" />
      <line
         class="cls-1"
         x1="2.48"
         y1="0.83999997"
         x2="2.48"
         y2="0.38"
         id="line23" />
      <line
         class="cls-1"
         x1="2.78"
         y1="0.87"
         x2="2.54"
         y2="0.87"
         id="line24" />
      <path
         class="cls-1"
         d="m 2.48,0.82 c 0,0 0.02,0.05 0.05,0.05"
         id="path24" />
      <path
         class="cls-1"
         d="m 18.04,0.84 c 0.24,0 0.45,-0.17 0.49,-0.41"
         id="path25" />
      <path
         class="cls-1"
         d="m 18.04,1.02 c 0.33,0 0.61,-0.23 0.66,-0.56"
         id="path26" />
      <path
         class="cls-1"
         d="m 19.53,0.91 c 0,0 -0.02,-0.04 -0.05,-0.04"
         id="path27" />
      <line
         class="cls-1"
         x1="19.440001"
         y1="0.87"
         x2="19.5"
         y2="0.87"
         id="line27" />
      <line
         class="cls-1"
         x1="19.25"
         y1="0.93000001"
         x2="19.41"
         y2="1.22"
         id="line28" />
      <path
         class="cls-1"
         d="m 11.28,0.84 c 0.14,-0.16 0.16,-0.38 0.05,-0.57 -0.1,-0.18 -0.31,-0.28 -0.51,-0.24 -0.21,0.04 -0.37,0.2 -0.4,0.4"
         id="path28" />
      <path
         class="cls-1"
         d="m 10.91,0.83 c 0.17,0 0.3,-0.14 0.31,-0.3 C 11.22,0.36 11.1,0.22 10.94,0.2 10.78,0.18 10.62,0.29 10.6,0.46"
         id="path29" />
      <path
         class="cls-1"
         d="m 9.91,0.84 c 0.24,0 0.45,-0.17 0.49,-0.41"
         id="path30" />
      <path
         class="cls-1"
         d="m 9.91,1.02 c 0.33,0 0.61,-0.23 0.66,-0.56"
         id="path31" />
      <path
         class="cls-1"
         d="M 7.23,0.84 C 7.37,0.68 7.39,0.46 7.28,0.27 7.18,0.09 6.97,-0.01 6.77,0.03 6.56,0.07 6.4,0.23 6.37,0.43"
         id="path32" />
      <path
         class="cls-1"
         d="m 6.86,0.83 c 0.17,0 0.3,-0.14 0.31,-0.3 C 7.17,0.36 7.05,0.22 6.89,0.2 6.73,0.18 6.57,0.29 6.55,0.46"
         id="path33" />
      <path
         class="cls-1"
         d="m 5.83,0.84 c 0.24,0 0.45,-0.17 0.49,-0.41"
         id="path34" />
      <path
         class="cls-1"
         d="m 5.83,1.02 c 0.33,0 0.61,-0.23 0.66,-0.56"
         id="path35" />
      <path
         class="cls-1"
         d="M 15.36,0.84 C 15.5,0.68 15.52,0.46 15.41,0.27 15.31,0.09 15.1,-0.01 14.9,0.03 c -0.21,0.04 -0.37,0.2 -0.4,0.4"
         id="path36" />
      <path
         class="cls-1"
         d="m 14.99,0.83 c 0.17,0 0.3,-0.14 0.31,-0.3 C 15.31,0.37 15.18,0.22 15.02,0.2 14.86,0.18 14.7,0.29 14.68,0.46"
         id="path37" />
      <path
         class="cls-1"
         d="m 13.96,0.84 c 0.24,0 0.45,-0.17 0.49,-0.41"
         id="path38" />
      <path
         class="cls-1"
         d="m 13.96,1.02 c 0.33,0 0.61,-0.23 0.66,-0.56"
         id="path39" />
      <path
         class="cls-1"
         d="M 5.19,0.84 C 5.33,0.68 5.35,0.46 5.24,0.27 5.14,0.09 4.93,-0.01 4.73,0.03 4.52,0.07 4.36,0.23 4.33,0.43"
         id="path40" />
      <path
         class="cls-1"
         d="m 4.82,0.83 c 0.17,0 0.3,-0.14 0.31,-0.3 C 5.13,0.36 5.01,0.22 4.85,0.2 4.69,0.18 4.53,0.29 4.51,0.46"
         id="path41" />
      <path
         class="cls-1"
         d="m 3.82,0.84 c 0.24,0 0.45,-0.17 0.49,-0.41"
         id="path42" />
      <path
         class="cls-1"
         d="m 3.82,1.02 c 0.33,0 0.61,-0.23 0.66,-0.56"
         id="path43" />
      <path
         class="cls-1"
         d="M 9.24,0.84 C 9.38,0.68 9.4,0.46 9.29,0.27 9.19,0.09 8.98,-0.01 8.78,0.03 8.57,0.07 8.41,0.23 8.38,0.43"
         id="path44" />
      <path
         class="cls-1"
         d="m 8.87,0.83 c 0.17,0 0.3,-0.14 0.31,-0.3 C 9.19,0.37 9.06,0.22 8.9,0.2 8.74,0.18 8.58,0.29 8.56,0.46"
         id="path45" />
      <path
         class="cls-1"
         d="m 7.87,0.84 c 0.24,0 0.45,-0.17 0.49,-0.41"
         id="path46" />
      <path
         class="cls-1"
         d="M 7.87,1.02 C 8.2,1.02 8.48,0.79 8.53,0.46"
         id="path47" />
      <path
         class="cls-1"
         d="m 13.32,0.84 c 0.14,-0.16 0.16,-0.38 0.05,-0.57 -0.1,-0.18 -0.31,-0.28 -0.51,-0.24 -0.21,0.04 -0.37,0.2 -0.4,0.4"
         id="path48" />
      <path
         class="cls-1"
         d="m 12.95,0.83 c 0.17,0 0.3,-0.14 0.31,-0.3 0,-0.17 -0.12,-0.31 -0.28,-0.33 -0.16,-0.02 -0.32,0.09 -0.34,0.26"
         id="path49" />
      <path
         class="cls-1"
         d="m 11.95,0.84 c 0.24,0 0.45,-0.17 0.49,-0.41"
         id="path50" />
      <path
         class="cls-1"
         d="m 11.95,1.02 c 0.33,0 0.61,-0.23 0.66,-0.56"
         id="path51" />
      <path
         class="cls-1"
         d="m 17.37,0.84 c 0.14,-0.16 0.16,-0.38 0.05,-0.57 -0.1,-0.18 -0.31,-0.28 -0.51,-0.24 -0.21,0.04 -0.37,0.2 -0.4,0.4"
         id="path52" />
      <path
         class="cls-1"
         d="m 17,0.83 c 0.17,0 0.3,-0.14 0.31,-0.3 C 17.32,0.37 17.19,0.22 17.03,0.2 16.87,0.18 16.71,0.29 16.69,0.46"
         id="path53" />
      <path
         class="cls-1"
         d="m 16,0.84 c 0.24,0 0.45,-0.17 0.49,-0.41"
         id="path54" />
      <path
         class="cls-1"
         d="m 16,1.02 c 0.33,0 0.61,-0.23 0.66,-0.56"
         id="path55" />
    </g>
  </g>
</svg>
